Newaita-dark/actions/scalable/mail-forward.svg

<?xml version="1.0" encoding="UTF-8"?>
<svg xmlns="http://www.w3.org/2000/svg" xmlns:xlink="http://www.w3.org/1999/xlink" width="512pt" height="512pt" viewBox="0 0 512 512" version="1.1">
<g id="surface1">
<path style=" stroke:none;fill-rule:nonzero;fill:rgb(74.117649%,74.117649%,74.117649%);fill-opacity:1;" d="M 63.507812 67.507812 C 40.050781 67.507812 21.167969 86.386719 21.167969 109.84375 L 21.167969 416.789062 C 21.167969 440.246094 40.050781 459.125 63.507812 459.125 L 306.945312 459.125 L 306.945312 427.375 L 74.089844 427.375 C 62.363281 427.375 52.921875 417.933594 52.921875 406.207031 L 52.921875 123.789062 L 241.835938 292.816406 C 248.777344 299.023438 259.273438 299.023438 266.210938 292.816406 L 455.125 123.789062 L 455.125 279.191406 L 486.878906 279.191406 L 486.878906 109.84375 C 486.878906 86.386719 467.996094 67.507812 444.542969 67.507812 Z M 80.335938 99.257812 L 427.714844 99.257812 L 254.023438 254.664062 Z M 80.335938 99.257812 "/>
<path style=" stroke:none;fill-rule:evenodd;fill:rgb(14.901961%,77.64706%,85.490197%);fill-opacity:1;" d="M 377.078125 305.65625 C 367.578125 305.84375 359.867188 313.613281 359.867188 323.230469 L 359.867188 360.273438 L 292.773438 360.273438 C 283.976562 360.273438 276.894531 367.355469 276.894531 376.152344 C 276.894531 384.945312 283.976562 392.027344 292.773438 392.027344 L 359.867188 392.027344 L 359.867188 429.074219 C 359.871094 442.667969 374.640625 451.117188 386.359375 444.226562 L 476.328125 391.300781 C 487.878906 384.503906 487.878906 367.796875 476.328125 361 L 386.359375 308.078125 C 383.820312 306.585938 380.949219 305.753906 378.003906 305.660156 C 377.695312 305.648438 377.386719 305.648438 377.078125 305.652344 Z M 377.078125 305.65625 "/>
</g>
</svg>

<svg xmlns="http://www.w3.org/2000/svg" width="512pt" height="512pt" viewBox="0 0 512 512"><path d="M63.508 67.508c-23.457 0-42.34 18.879-42.34 42.336v306.945c0 23.457 18.883 42.336 42.34 42.336h243.437v-31.75H74.09a21.122 21.122 0 0 1-21.168-21.168V123.789l188.914 169.027c6.941 6.207 17.437 6.207 24.375 0L455.125 123.79v155.402h31.754V109.844c0-23.457-18.883-42.336-42.336-42.336zm16.828 31.75h347.379L254.023 254.664zm0 0" fill="#bdbdbd"/><path d="M377.078 305.656c-9.5.188-17.21 7.957-17.21 17.574v37.043h-67.095a15.844 15.844 0 0 0-15.878 15.88 15.843 15.843 0 0 0 15.878 15.874h67.094v37.047c.004 13.594 14.774 22.043 26.492 15.153l89.97-52.926c11.55-6.797 11.55-23.504 0-30.301l-89.97-52.922a17.592 17.592 0 0 0-8.355-2.418 18.29 18.29 0 0 0-.926-.008zm0 0" fill-rule="evenodd" fill="#26c6da"/></svg>
